X: 1297
T: An Gun's T-Apron
R: jig
M: 6/8
K: Amixolydian
c2e ece|ece g2e|fdd add|f3 fed|
c2e ece|ece g2e|fdd fgf|1 e2d cAA:|2 eed cde||
a3 cca|cca g2e|a3 cca|e2d cAA|
a3 cca|cca g2e|fdd fgf|1 e2d cde:|2 e2d cAA||

